X: 16382
T: Gusty's Frolics
R: slip jig
M: 9/8
K: Emajor
|:B,EE B,EF FGG|B,EE EF/G/B AFD|B,EE DEF FGE|AGA {E}F2G AGF:|
GFG BcB BB/B/A|GFG Bcd eBA|GFG BcB c/B/AG|AGA {E}F2G AGF|
GFG BcB BB/B/A|GFG Bcd eBA|GFE edc B/c/B/A/G|AGA {E}F2G AGF|
|:B2e e/e/Bf fgg|Bee ef/g/b afd|ee/e/e efa fge|aga f2g agf:|
|:ede g/f/ed e2c|BGE EFG BGE|=DE/F/A =dec d2B|1 AF=D DEF AFD:|2 AFE E/E/EF EDC||

